symbols/web/connected_tv/materialsymbolsrounded/connected_tv_wght100gradN25fill1_24px.svg

<svg xmlns="http://www.w3.org/2000/svg" height="24" width="24"><path d="M5.475 15.55h1.15q-.125-.425-.425-.725t-.725-.425Zm3.775 0q.15 0 .25-.1t.075-.225q-.125-1.55-1.175-2.6T5.8 11.45q-.125-.025-.225.062-.1.088-.1.238 0 .125.087.238.088.112.238.137 1.25.125 2.125.988.875.862 1 2.112 0 .15.1.237.1.088.225.088Zm3 0q.125 0 .225-.088.1-.087.1-.237-.125-2.775-2.062-4.713Q8.575 8.575 5.8 8.45q-.15 0-.238.1-.087.1-.087.225 0 .15.087.237.088.088.238.088 2.5.125 4.25 1.875t1.875 4.25q0 .15.088.237.087.088.237.088Zm-2.15 4.025q-.325 0-.525-.2t-.2-.5V17.6h-4.5q-.6 0-1.025-.425-.425-.425-.425-1.025V5.85q0-.6.425-1.025.425-.425 1.025-.425H19.15q.575 0 1 .425.425.425.425 1.025v10.3q0 .6-.425 1.025-.425.425-1 .425h-4.525v1.275q0 .3-.2.5t-.5.2Z"/></svg>

<svg xmlns="http://www.w3.org/2000/svg" height="24" width="24"><path d="M5.475 15.55H6.625Q6.5 15.125 6.2 14.825Q5.9 14.525 5.475 14.4ZM9.25 15.55Q9.4 15.55 9.5 15.45Q9.6 15.35 9.575 15.225Q9.45 13.675 8.4 12.625Q7.35 11.575 5.8 11.45Q5.675 11.425 5.575 11.512Q5.475 11.6 5.475 11.75Q5.475 11.875 5.562 11.988Q5.65 12.1 5.8 12.125Q7.05 12.25 7.925 13.113Q8.8 13.975 8.925 15.225Q8.925 15.375 9.025 15.462Q9.125 15.55 9.25 15.55ZM12.25 15.55Q12.375 15.55 12.475 15.462Q12.575 15.375 12.575 15.225Q12.45 12.45 10.513 10.512Q8.575 8.575 5.8 8.45Q5.65 8.45 5.562 8.55Q5.475 8.65 5.475 8.775Q5.475 8.925 5.562 9.012Q5.65 9.1 5.8 9.1Q8.3 9.225 10.05 10.975Q11.8 12.725 11.925 15.225Q11.925 15.375 12.013 15.462Q12.1 15.55 12.25 15.55ZM10.1 19.575Q9.775 19.575 9.575 19.375Q9.375 19.175 9.375 18.875V17.6H4.875Q4.275 17.6 3.85 17.175Q3.425 16.75 3.425 16.15V5.85Q3.425 5.25 3.85 4.825Q4.275 4.4 4.875 4.4H19.15Q19.725 4.4 20.15 4.825Q20.575 5.25 20.575 5.85V16.15Q20.575 16.75 20.15 17.175Q19.725 17.6 19.15 17.6H14.625V18.875Q14.625 19.175 14.425 19.375Q14.225 19.575 13.925 19.575Z"/></svg>
